X:1
T:Title
%%score 1 { ( 2 4 ) | ( 3 5 ) }
L:1/8
Q:1/4=72
M:4/4
K:A
V:1 treble nm="Voice"
V:2 treble nm="Piano"
V:4 treble 
V:3 bass 
V:5 bass 
V:1
"^Andante" z | z8 | z4 z2 z!p! F | F2 A3/2 B/ c3 F | F2 A3/2 B/ c3 z | A2 F G A F E3/2 E/ | %6
 F G A3/2 A/ G2 z2 | z2 G3/2 G/ c2 G G | c B A B c2 z c | c3/2 B/ A B c2 B2 | A2 G2 F2 z c | %11
 c3/2 B/ A B c2 B2 | A2 G2 F2 z2 | z8 | z4 z2 z!mp! F | F2 A3/2 B/ c3 F | F2 A3/2 B/ c2 z2 | %17
 A3/2 A/ F G A F E3/2 E/ | F3/2 G/ A A G2 z2 | z2 G3/2 G/ c2 G G | c B A B c2 z c | %21
 c3/2 B/ A B c2 B2 | A2 G2 F2 z c | c3/2 B/ A B c2 B2 | A2 G2 F2 z2 | z8 | z4 z2 z!p! F | %27
 F2 A3/2 B/ c2 z F | F2 A3/2 B/ c2 z2 | A2 F G A F E3/2 E/ | F3/2 G/ A A G2 z2 | %31
 z2 G3/2 G/ c2 G G | c B A B c2 z c | c3/2 B/ A B c2 B2 | A2 G2 F2 z2 | z8 | z8[Q:1/4=70] |] %37
V:2
!mp! (c | [CFA]2) (c>f [ce]3 d) | ([Bc-]2 c>f) f2 z2 |!p! z ([A,C][CF][FA] [cf][FA][CF][A,C]) | %4
 z ([A,C][CF][FA] [cf][Ac][FA][CF]) | z ([FA][Ad][df]) z ([EA][Ac][ce]) | %6
 z ([^DF][FA][Ac]) z ([EG][Cc][EG]) | ([cc'][Gg][Ee][Cc]) z4 | z ([Cc][Dd][^D^d] [^E^e]2) z2 | %9
 z ([FA][FB][Fc] [Fd]2 [FB]2 | A2 [^EG]2 [FA]2) z2 | z ([FA][FB][Fc] [Fd]2 [FB]2 | %12
 A2 [^EG]2 [FA]2) z2 |!p! z (CFA c3 B | A2 G2 F2) z2 | z ([A,C][CF][FA] [cf][Ac][FA][CF]) | %16
 z ([A,C][CF][FA] [cf][Ac][FA][CF]) | z ([FA][Ad][df]) z ([EA][Ac][ce]) | %18
 z ([^DF][FA][Ac]) z ([EG][Cc][EG]) | ([cc'][Gg][Ee][Cc]) z4 | z ([Cc][Dd][^D^d] [^E^e]2) z2 | %21
 z ([FA][FB][Fc] [Fd]2 [FB]2 | A2 [^EG]2 [FA]2) z2 | z ([FA][FB][Fc] [Fd]2 [FB]2 | %24
 A2 [^EG]2 [FA]2) z2 |!p! z (CFA c3 B | A2 G2 F2) z2 | z ([A,C][CF][FA] [cf][Ac][FA][CF]) | %28
 z ([A,C][CF][FA] [cf][Ac][FA][CF]) | z ([FA][Ad][df]) z ([EA][Ac][ce]) | %30
 z ([^DF][FA][Ac]) z ([EG][Cc][EG]) | ([cc'][Gg][Ee][Cc]) z4 | z ([Cc][Dd][^D^d] [^E^e]2) z2 | %33
 z ([FA][FB][Fc] [Fd]2 [FB]2 | A2 [^EG]2 [FA]2) z2 | z (CFA c3 B | A2 G2"^rit." F4) |] %37
V:3
"^dolce" z | F,,2 z (F, ^A,2 B,2 | C2 ^E2 F2) z2 | [F,,F,]2 z2 z4 | [F,,F,]2 z2 z4 | %5
 [D,D]2 z2 [A,,A,]2 z2 | [^B,,,^B,,]2 z2 [C,,C,]2 z2 | z2 [E,G,C]2 z4 | %8
 z ([^E,G,][F,A,][G,B,] [A,C]2) z2 | z ([F,C][E,C][D,C] [B,,B,]2 [D,B,]2 | C4) F,2 z2 | %11
 z ([F,C][E,C][D,C] [B,,B,]2 [D,B,]2 | C4) F,2 z2 | (C,2 ^D,^E, F,2 G,2 | A,B, C2 F,2) z2 | %15
 [F,,F,]2 z2 z4 | [F,,F,]2 z2 z4 | [D,D]2 z2 [A,,A,]2 z2 | [^B,,,^B,,]2 z2 [C,,C,]2 z2 | %19
 z2 [E,G,C]2 z4 | z ([^E,G,][F,A,][G,B,] [A,C]2) z2 | z ([F,C][E,C][D,C] [B,,B,]2 [D,B,]2 | %22
 C4) F,2 z2 | z ([F,C][E,C][D,C] [B,,B,]2 [D,B,]2 | C4) F,2 z2 | (C,2 ^D,^E, F,2 G,2 | %26
 A,B, C2 F,2) z2 | [F,,F,]2 z2 z4 | [F,,F,]2 z2 z4 | [D,D]2 z2 [A,,A,]2 z2 | %30
 [^B,,,^B,,]2 z2 [C,,C,]2 z2 | z2 [E,G,C]2 z4 | z ([^E,G,][F,A,][G,B,] [A,C]2) z2 | %33
 z ([F,C][E,C][D,C] [B,,B,]2 [D,B,]2 | C4) F,2 z2 | (C,2 ^D,^E, F,2 G,2 | A,B, C2 F,4) |] %37
V:4
 x | x4 F4 | G2 B2 A2 x2 | x8 | x8 | x8 | x8 | x8 | x8 | x8 | F2 x6 | x8 | F2 x6 | A,2 B,2 C2 D2 | %14
 C3 B, A,2 x2 | x8 | x8 | x8 | x8 | x8 | x8 | x8 | F2 x6 | x8 | F2 x6 | A,2 B,2 C2 D2 | %26
 C3 B, A,2 x2 | x8 | x8 | x8 | x8 | x8 | x8 | x8 | F2 x6 | A,2 B,2 C2 D2 | C3 B, A,4 |] %37
V:5
 x | x4 F,4 | F,4 F,2 x2 | x8 | x8 | x8 | x8 | C,,4 z4 | [C,,C,]4- [C,,C,]2 z2 | x8 | C,4 x4 | x8 | %12
 C,4 x4 | x4 F,4- | F,2 C,2 x4 | x8 | x8 | x8 | x8 | C,,4 z4 | [C,,C,]4- [C,,C,]2 z2 | x8 | %22
 C,4 x4 | x8 | C,4 x4 | x4 F,4- | F,2 C,2 x4 | x8 | x8 | x8 | x8 | C,,4 z4 | %32
 [C,,C,]4- [C,,C,]2 z2 | x8 | C,4 x4 | x4 F,4- | F,2 C,2 F,,4 |] %37

